img/f-delivery.svg

<svg width="30" height="21" viewBox="0 0 30 21" fill="none" xmlns="http://www.w3.org/2000/svg">
<path d="M0 0V2.625H9.13043V5.25H1.30435V7.875H6.52174V10.5H1.30435V17.0625H3.91304C3.91304 19.2373 5.66478 21 7.82609 21C9.98739 21 11.7391 19.2373 11.7391 17.0625H18.2609H19.5652C19.5652 19.2373 21.317 21 23.4783 21C25.6396 21 27.3913 19.2373 27.3913 17.0625H30V10.5L26.4462 3.35046C26.2257 2.90553 25.7763 2.625 25.2819 2.625H20.8696C20.8696 1.17469 19.7022 0 18.2609 0H0ZM20.8696 4.92188H24.6756L27.4474 10.5H20.8696V4.92188ZM7.82609 15.4219C8.72478 15.4219 9.45652 16.1582 9.45652 17.0625C9.45652 17.9668 8.72478 18.7031 7.82609 18.7031C6.92739 18.7031 6.19565 17.9668 6.19565 17.0625C6.19565 16.1582 6.92739 15.4219 7.82609 15.4219ZM23.4783 15.4219C24.377 15.4219 25.1087 16.1582 25.1087 17.0625C25.1087 17.9668 24.377 18.7031 23.4783 18.7031C22.5796 18.7031 21.8478 17.9668 21.8478 17.0625C21.8478 16.1582 22.5796 15.4219 23.4783 15.4219Z" fill="#034899"/>
</svg>

<svg width="30" height="21" fill="none" xmlns="http://www.w3.org/2000/svg"><path d="M0 0v2.625h9.13V5.25H1.304v2.625h5.218V10.5H1.304v6.563h2.609C3.913 19.236 5.665 21 7.826 21c2.161 0 3.913-1.763 3.913-3.938h7.826c0 2.175 1.752 3.938 3.913 3.938 2.162 0 3.913-1.763 3.913-3.938H30V10.5l-3.554-7.15a1.299 1.299 0 0 0-1.164-.725H20.87A2.616 2.616 0 0 0 18.26 0H0zm20.87 4.922h3.806l2.771 5.578H20.87V4.922zm-13.044 10.5c.899 0 1.63.736 1.63 1.64 0 .905-.731 1.641-1.63 1.641-.899 0-1.63-.736-1.63-1.64 0-.905.731-1.641 1.63-1.641zm15.652 0c.899 0 1.63.736 1.63 1.64 0 .905-.731 1.641-1.63 1.641-.898 0-1.63-.736-1.63-1.64 0-.905.732-1.641 1.63-1.641z" fill="#034899"/></svg>
